X: 3333
T: Belles Of Liscarroll, The
R: jig
M: 6/8
K: Dmixolydian
|:F3 DGG|F3 D3|DEF GAG|FAA D2 E|
FEF GFG|AGA g/f/ed|ecA GFE|1 FAD D2 E:|2 FAD DAB||
|:=c3 d^cd|ecA AGE|=c3 dcB|AGE GAB|
=cBc d^cd|ede eag|edc AB=c|1 BAA A2 B:|2 BAA ABc||
d3 AFA|GAG FED|dB/c/d AFA|GFE DFA|
dB/c/d AFA|DFA g/f/ed|ecA GFE|FAD DFA:|
|:dFF AFF|dFF AFF|GEE =cEE|FAG FED|
d2 F AFA|DFA g/f/ed|ecA GFE|1 FAD DFA:|2 FAD D2 E||

